media/icon/vk.svg

<svg width="25" height="25" viewBox="0 0 25 25" fill="none" xmlns="http://www.w3.org/2000/svg">
<path d="M12.5 0.5C5.8725 0.5 0.5 5.8725 0.5 12.5C0.5 19.1275 5.8725 24.5 12.5 24.5C19.1275 24.5 24.5 19.1275 24.5 12.5C24.5 5.8725 19.1275 0.5 12.5 0.5ZM17.115 14.0388C17.115 14.0388 18.1763 15.0863 18.4375 15.5725C18.445 15.5833 18.4496 15.5917 18.4513 15.5975C18.5571 15.775 18.5833 15.9154 18.53 16.0188C18.4425 16.1912 18.1425 16.2763 18.04 16.2838H16.165C16.035 16.2838 15.7625 16.25 15.4325 16.0225C15.1788 15.845 14.9288 15.5538 14.685 15.27C14.3213 14.8475 14.0063 14.4825 13.6888 14.4825C13.6484 14.4823 13.6083 14.4887 13.57 14.5013C13.33 14.5788 13.0225 14.9213 13.0225 15.8337C13.0225 16.1188 12.7975 16.2825 12.6388 16.2825H11.78C11.4875 16.2825 9.96375 16.18 8.61375 14.7563C6.96125 13.0125 5.47375 9.515 5.46125 9.4825C5.3675 9.25625 5.56125 9.135 5.7725 9.135H7.66625C7.91875 9.135 8.00125 9.28875 8.05875 9.425C8.12625 9.58375 8.37375 10.215 8.78 10.925C9.43875 12.0825 9.8425 12.5525 10.1663 12.5525C10.227 12.5518 10.2866 12.5363 10.34 12.5075C10.7625 12.2725 10.6838 10.7662 10.665 10.4537C10.665 10.395 10.6637 9.78 10.4475 9.485C10.2925 9.27125 10.0287 9.19 9.86875 9.16C9.93351 9.07064 10.0188 8.99818 10.1175 8.94875C10.4075 8.80375 10.93 8.7825 11.4488 8.7825H11.7375C12.3 8.79 12.445 8.82625 12.6488 8.8775C13.0613 8.97625 13.07 9.2425 13.0338 10.1538C13.0225 10.4125 13.0113 10.705 13.0113 11.05L13.0075 11.29C12.995 11.7537 12.98 12.28 13.3075 12.4963C13.3497 12.5241 13.3994 12.5385 13.45 12.5375C13.5638 12.5375 13.9062 12.5375 14.8337 10.9463C15.1187 10.4335 15.3673 9.90138 15.5775 9.35375C15.5963 9.32125 15.6513 9.22125 15.7163 9.1825C15.7647 9.15946 15.8176 9.1471 15.8713 9.14625H18.0975C18.34 9.14625 18.5063 9.1825 18.5375 9.27625C18.5925 9.425 18.5275 9.87875 17.5112 11.255L17.0575 11.8538C16.1363 13.0613 16.1363 13.1225 17.115 14.0388Z" fill="white"/>
</svg>

<svg xmlns="http://www.w3.org/2000/svg" width="25" height="25" fill="none"><path fill="#fff" d="M12.5.5C5.873.5.5 5.873.5 12.5c0 6.628 5.373 12 12 12 6.628 0 12-5.372 12-12 0-6.627-5.372-12-12-12m4.615 13.539s1.061 1.047 1.323 1.534q.011.016.013.024.159.267.079.422c-.088.172-.388.257-.49.265h-1.875c-.13 0-.402-.034-.732-.261-.254-.178-.504-.47-.748-.753-.364-.422-.679-.787-.996-.787q-.06 0-.119.018c-.24.078-.547.42-.547 1.333 0 .285-.226.448-.384.448h-.859c-.292 0-1.816-.102-3.166-1.526-1.653-1.744-3.14-5.241-3.153-5.273-.094-.227.1-.348.311-.348h1.894c.253 0 .335.154.393.29.067.159.315.79.721 1.5.659 1.157 1.063 1.627 1.386 1.627q.092-.001.174-.044c.422-.235.344-1.742.325-2.054 0-.059-.001-.674-.217-.969-.155-.214-.42-.295-.58-.325a.7.7 0 0 1 .25-.211c.29-.145.812-.166 1.33-.166h.29c.562.007.707.043.91.095.413.098.422.364.386 1.276-.011.258-.023.551-.023.896l-.003.24c-.013.464-.028.99.3 1.206a.25.25 0 0 0 .142.041c.114 0 .456 0 1.384-1.59q.427-.771.744-1.593c.018-.033.073-.133.138-.171a.4.4 0 0 1 .155-.037h2.226c.243 0 .41.036.44.13.056.149-.01.603-1.026 1.979l-.453.599c-.922 1.207-.922 1.269.057 2.185"/></svg>
